src/components/Icon/utils/svgsOptimized/copy.svg

<svg width="24" height="24" viewBox="0 0 24 24"  xmlns="http://www.w3.org/2000/svg">
<path fill-rule="evenodd" clip-rule="evenodd" d="M9.6 4.51001C8.85442 4.51001 8.25 5.11443 8.25 5.86001V15.41C8.25 16.1556 8.85441 16.76 9.6 16.76H17.15C17.8956 16.76 18.5 16.1556 18.5 15.41V5.86001C18.5 5.11442 17.8956 4.51001 17.15 4.51001H9.6ZM9.75 15.26V6.01001H17V15.26H9.75Z" />
<path d="M7 8.59001C7 8.1758 6.66421 7.84001 6.25 7.84001C5.83579 7.84001 5.5 8.1758 5.5 8.59001V18.14C5.5 18.4981 5.64223 18.8414 5.8954 19.0946C6.14858 19.3478 6.49196 19.49 6.85 19.49H14.4C14.8142 19.49 15.15 19.1542 15.15 18.74C15.15 18.3258 14.8142 17.99 14.4 17.99H7V8.59001Z" />
</svg>

<?xml version="1.0" encoding="utf-8"?><svg width="24" height="24" xmlns="http://www.w3.org/2000/svg" viewBox="0 0 24 24"><path fill-rule="evenodd" clip-rule="evenodd" d="M9.6 4.51a1.35 1.35 0 0 0-1.35 1.35v9.55c0 .746.604 1.35 1.35 1.35h7.55a1.35 1.35 0 0 0 1.35-1.35V5.86a1.35 1.35 0 0 0-1.35-1.35H9.6Zm.15 10.75V6.01H17v9.25H9.75Z"/><path d="M7 8.59a.75.75 0 0 0-1.5 0v9.55a1.35 1.35 0 0 0 1.35 1.35h7.55a.75.75 0 0 0 0-1.5H7v-9.4Z"/></svg>
